svgs/thin/books-medical.svg

<svg xmlns="http://www.w3.org/2000/svg" viewBox="0 0 576 512"><!--! Font Awesome Pro 6.3.0 by @fontawesome - https://fontawesome.com License - https://fontawesome.com/license (Commercial License) Copyright 2023 Fonticons, Inc. --><path d="M63.1 336c0 13.23 10.77 24 24 24h32c13.23 0 24-10.77 24-24V296h40c13.23 0 24-10.77 24-24v-32c0-13.23-10.77-24-24-24H144V176c0-13.23-10.77-24-24-24h-32c-13.23 0-24 10.77-24 24L64 216H24C10.77 216 0 226.8 0 240v32C0 285.2 10.77 296 24 296H64L63.1 336zM24 280C19.59 280 16 276.4 16 272v-32c0-4.406 3.594-8 8-8H80V176c0-4.406 3.594-8 8-8h32c4.406 0 7.998 3.598 7.998 8.005L128 232h56c4.406 0 7.996 3.596 7.996 8.002v32C191.1 276.4 188.4 280 184 280H128L127.1 336c0 4.406-3.591 8-7.998 8h-32c-4.406 0-8-3.594-8-8V280H24zM574.6 445.3L461.8 29.55C456.9 11.74 440.6 0 422.8 0c-3.457 0-6.975 .4414-10.47 1.367l-62.39 16.5c-6.514 1.723-11.85 5.246-16.49 9.461C328.1 11.54 313.6 0 296 0h-64c-13.44 0-24.75 7.062-32 17.23C192.7 7.062 181.4 0 168 0h-64C81.91 0 64 17.91 64 40v80C64 124.4 67.58 128 72 128S80 124.4 80 120V112H192v72C192 188.4 195.6 192 200 192S208 188.4 208 184V112H320v288H208v-72C208 323.6 204.4 320 200 320S192 323.6 192 328v72H80v-8C80 387.6 76.42 384 72 384S64 387.6 64 392v80C64 494.1 81.91 512 104 512h64c13.44 0 24.75-7.062 32-17.23C207.3 504.9 218.6 512 232 512h64c22.09 0 40-17.91 40-40V120.5l98.23 361.9C439.1 500.3 455.4 512 473.2 512c3.457 0 6.973-.4414 10.47-1.367l62.39-16.5C567.6 488.4 580.4 466.6 574.6 445.3zM192 96H80V40c0-13.23 10.77-24 24-24h64C181.2 16 192 26.77 192 40L192 96zM192 472c0 13.23-10.77 24-24 24h-64c-13.23 0-24-10.77-24-24V416h112L192 472zM320 472c0 13.23-10.77 24-24 24h-64c-13.23 0-24-10.77-24-24V416H320V472zM320 96H208V40c0-13.23 10.77-24 24-24h64C309.2 16 320 26.77 320 40V96zM336.8 62.49c-1.643-6.059-.8145-12.4 2.336-17.86c3.236-5.605 8.514-9.617 14.86-11.3l62.39-16.5C418.5 16.28 420.7 16 422.8 16c11.02 0 20.69 7.297 23.53 17.74l14.6 53.8l-109.4 28.95L336.8 62.49zM430.9 409l-75.22-277.1l109.4-28.95l75.22 277.1L430.9 409zM556.8 467.4c-3.236 5.605-8.514 9.617-14.86 11.3l-62.39 16.5C477.5 495.7 475.3 496 473.2 496c-11.02 0-20.7-7.297-23.53-17.74l-14.6-53.8l109.4-28.95l14.65 53.99C560.8 455.6 559.1 461.9 556.8 467.4z"/></svg>

<svg xmlns="http://www.w3.org/2000/svg" viewBox="0 0 576 512"><!-- Font Awesome Pro 6.0.0-alpha2 by @fontawesome - https://fontawesome.com License - https://fontawesome.com/license (Commercial License) --><path d="M64 336C64 349.234 74.766 360 88 360H120C133.234 360 144 349.234 144 336V296H184C197.234 296 208 285.234 208 272V240C208 226.766 197.234 216 184 216H144V176C144 162.766 133.234 152 120 152H88C74.766 152 64 162.766 64 176V216H24C10.766 216 0 226.766 0 240V272C0 285.234 10.766 296 24 296H64V336ZM24 280C19.594 280 16 276.406 16 272V240C16 235.594 19.594 232 24 232H80V176C80 171.594 83.594 168 88 168H120C124.406 168 128 171.594 128 176V232H184C188.406 232 192 235.594 192 240V272C192 276.406 188.406 280 184 280H128V336C128 340.406 124.406 344 120 344H88C83.594 344 80 340.406 80 336V280H24ZM574.615 445.316L461.768 29.551C456.936 11.742 440.623 0 422.797 0C419.34 0 415.822 0.441 412.324 1.367L349.932 17.871C343.418 19.594 338.084 23.117 333.443 27.332C328.092 11.543 313.598 0 296 0H232C218.561 0 207.254 7.062 200 17.227C192.746 7.062 181.439 0 168 0H104C81.908 0 64 17.906 64 40V120C64 124.418 67.582 128 72 128S80 124.418 80 120V112H192V184C192 188.418 195.582 192 200 192S208 188.418 208 184V112H320V400H208V328C208 323.582 204.418 320 200 320S192 323.582 192 328V400H80V392C80 387.582 76.418 384 72 384S64 387.582 64 392V472C64 494.094 81.908 512 104 512H168C181.439 512 192.746 504.938 200 494.773C207.254 504.938 218.561 512 232 512H296C318.092 512 336 494.094 336 472V120.523L434.232 482.449C439.066 500.258 455.377 512 473.205 512C476.662 512 480.178 511.559 483.676 510.633L546.068 494.129C567.605 488.43 580.385 466.578 574.615 445.316ZM192 96H80V40C80 26.766 90.768 16 104 16H168C181.234 16 192 26.766 192 40V96ZM192 472C192 485.234 181.234 496 168 496H104C90.768 496 80 485.234 80 472V416H192V472ZM320 472C320 485.234 309.234 496 296 496H232C218.768 496 208 485.234 208 472V416H320V472ZM320 96H208V40C208 26.766 218.768 16 232 16H296C309.234 16 320 26.766 320 40V96ZM336.826 62.492C335.184 56.434 336.012 50.094 339.162 44.637C342.398 39.031 347.676 35.02 354.023 33.34L416.414 16.836C418.51 16.281 420.656 16 422.799 16C433.816 16 443.492 23.297 446.326 33.742L460.928 87.539L460.799 87.574V87.57L403.605 102.699L351.48 116.484L336.826 62.492ZM430.889 409.047L355.664 131.898L465.111 102.953L540.336 380.102L430.889 409.047ZM556.838 467.363C553.602 472.969 548.324 476.98 541.977 478.66L479.586 495.164C477.49 495.719 475.342 496 473.205 496C462.186 496 452.508 488.703 449.674 478.258L435.072 424.461L435.201 424.426V424.43L460.938 417.617L544.52 395.516L559.174 449.508C560.818 455.566 559.988 461.906 556.838 467.363Z"/></svg>
